X:88
T:Quick Step. JJo.088
S:J.Jones MS,1801,N.Shrops.
N:fermata sign at end of A part indicates finish.
A:N Shropshire
Z:Neil Brookes 2006
M:2/4
L:1/8
Q:1/4=120
K:F
f2 a/g/f/g/|affe|dggf|ecc2|!
f2 a/g/f/g/|affe|dg f/e/d/e/|Hf2||
cB|AccB|AccB|Ac fa|g/f/e/d/ cB|!
Ac cd/e/|fa/f/ eg/e/|fg/a/ c’/a/g/f/|c’2c2|]

